apps/scalable/activity-journal.svg

<svg xmlns="http://www.w3.org/2000/svg" style="isolation:isolate" width="256" height="256"><defs><filter id="a" width="270.648" height="254.338" x="-7.32" y="2.95" filterUnits="userSpaceOnUse"><feGaussianBlur xmlns="http://www.w3.org/2000/svg" in="SourceGraphic" stdDeviation="4.294"/><feOffset xmlns="http://www.w3.org/2000/svg" dy="4" result="pf_100_offsetBlur"/><feFlood xmlns="http://www.w3.org/2000/svg" flood-opacity=".4"/><feComposite xmlns="http://www.w3.org/2000/svg" in2="pf_100_offsetBlur" operator="in" result="pf_100_dropShadow"/><feBlend xmlns="http://www.w3.org/2000/svg" in="SourceGraphic" in2="pf_100_dropShadow"/></filter></defs><g filter="url(#a)"><linearGradient id="b" x1="-.033" x2="1.033" y1="-.071" y2=".995" gradientTransform="matrix(244.648 0 0 228.338 5.676 11.947)" gradientUnits="userSpaceOnUse"><stop offset="0%" stop-color="#5884f4"/><stop offset="100%" stop-color="#80a3fa"/></linearGradient><path fill="url(#b)" d="M165.685 11.947c74.055 0 84.639 10.557 84.639 84.544v59.251c0 73.986-10.584 84.543-84.639 84.543h-75.37c-74.055 0-84.639-10.557-84.639-84.543V96.491c0-73.987 10.584-84.544 84.639-84.544h75.37z"/></g><g opacity=".4"><linearGradient id="c" x1=".517" x2=".517" y2="1"><stop offset="0%" stop-color="#fff"/><stop offset="12.5%" stop-opacity=".098" stop-color="#fff"/><stop offset="92.5%" stop-opacity=".098"/><stop offset="100%" stop-opacity=".498"/></linearGradient><path fill="none" stroke="url(#c)" stroke-linecap="round" stroke-linejoin="round" stroke-width="4.077" d="M165.685 11.947c74.055 0 84.639 10.557 84.639 84.544v59.251c0 73.986-10.584 84.543-84.639 84.543h-75.37c-74.055 0-84.639-10.557-84.639-84.543V96.491c0-73.987 10.584-84.544 84.639-84.544h75.37z" vector-effect="non-scaling-stroke"/></g><path fill="#FFF" d="M5.676 126.116v29.626c0 73.986 10.584 84.543 84.639 84.543h75.37c74.055 0 84.639-10.557 84.639-84.543v-29.626H5.676z" opacity=".1"/><linearGradient id="d" x1="-.008" x2="-.008" y1=".917" y2=".083" gradientTransform="matrix(244.648 0 0 48.93 5.676 103.534)" gradientUnits="userSpaceOnUse"><stop offset="0%" stop-color="#d9d9d9"/><stop offset="100%" stop-color="#ececec"/></linearGradient><path fill="url(#d)" d="M5.676 103.534v48.93h8.155v-48.93H5.676zm236.493 0v48.93h8.155v-48.93h-8.155z"/><path fill="#FFF" d="M5.676 103.534v1.019h8.155v-1.019H5.676zm236.493 0v1.019h8.155v-1.019h-8.155z"/><path fill="#FEE1C2" d="M133.253 158.258l-51.726 24.139 24.139-51.726 5.173-5.172 27.586 27.587-5.172 5.172z"/><path fill="#5D5D5D" d="M89.205 165.936l-7.678 16.461 16.461-7.678s1.628-.959.773-1.813c-.854-.854-3.425.023-3.425.023s1.709-2.602-.006-4.316c-1.715-1.715-4.316-.006-4.316-.006s.859-2.59-.004-3.452c-.862-.862-1.805.781-1.805.781z"/><linearGradient id="e" x2="1" y1="1.22" y2="1.22" gradientTransform="rotate(45 43.462 254.34) scale(39.014 127.784)" gradientUnits="userSpaceOnUse"><stop offset="0%" stop-color="#5884f4"/><stop offset="27.8%" stop-color="#5884f4"/><stop offset="27.8%" stop-color="#2f5fdd"/><stop offset="70.735%" stop-color="#2f5fdd"/><stop offset="70.936%" stop-color="#234db8"/><stop offset="100%" stop-color="#234db8"/></linearGradient><path fill="url(#e)" d="M105.666 130.671c3.448-3.448 9.483 6.035 4.31 11.207 8.621-8.62 20.691 3.449 12.07 12.07 5.172-5.173 14.655.862 11.207 4.31l86.908-86.908-27.586-27.587-86.909 86.908z"/><g><defs><filter id="f" width="27.658" height="27.658" x="34.51" y="39.17" filterUnits="userSpaceOnUse"><feGaussianBlur xmlns="http://www.w3.org/2000/svg" stdDeviation=".571"/></filter></defs><circle fill="#131313" r="1" transform="matrix(12.5 0 0 12.5 48.339 52.999)" vector-effect="non-scaling-stroke" opacity=".3" filter="url(#f)"/><circle fill="#ECECEC" r="1" transform="matrix(12.5 0 0 12.5 48.339 52.999)" vector-effect="non-scaling-stroke"/><defs><filter id="g" width="43.34" height="34.548" x="34.51" y="182.28" filterUnits="userSpaceOnUse"><feGaussianBlur xmlns="http://www.w3.org/2000/svg" stdDeviation=".571"/></filter></defs><path fill="#131313" d="M71.564 183.611l-1.41 1.396-20.868 20.662-8.489-8.401-4.961 4.916 9.921 9.818 3.529 3.499 4.584-4.547 22.648-22.411-4.954-4.932z" opacity=".3" filter="url(#g)"/><path fill="#F7F7F7" d="M71.564 183.611l-1.41 1.396-20.868 20.662-8.489-8.401-4.961 4.916 9.921 9.818 3.529 3.499 4.584-4.547 22.648-22.411-4.954-4.932z"/><defs><filter id="h" width="27.658" height="27.658" x="34.51" y="89.17" filterUnits="userSpaceOnUse"><feGaussianBlur xmlns="http://www.w3.org/2000/svg" stdDeviation=".571"/></filter></defs><circle fill="#131313" r="1" transform="matrix(12.5 0 0 12.5 48.339 102.999)" vector-effect="non-scaling-stroke" opacity=".3" filter="url(#h)"/><circle fill="#ECECEC" r="1" transform="matrix(12.5 0 0 12.5 48.339 102.999)" vector-effect="non-scaling-stroke"/><defs><filter id="i" width="27.658" height="27.658" x="34.51" y="139.17" filterUnits="userSpaceOnUse"><feGaussianBlur xmlns="http://www.w3.org/2000/svg" stdDeviation=".571"/></filter></defs><circle fill="#131313" r="1" transform="matrix(12.5 0 0 12.5 48.339 152.999)" vector-effect="non-scaling-stroke" opacity=".3" filter="url(#i)"/><circle fill="#ECECEC" r="1" transform="matrix(12.5 0 0 12.5 48.339 152.999)" vector-effect="non-scaling-stroke"/></g></svg>

<svg xmlns="http://www.w3.org/2000/svg" style="isolation:isolate" width="256" height="256" viewBox="0 0 256 256">
 <defs>
  <filter id="SCEl8BVhMnJA8LSFnaBOiTgFiLDcUglJ" width="270.648" height="254.338" x="-7.32" y="2.95" filterUnits="userSpaceOnUse">
   <feGaussianBlur xmlns="http://www.w3.org/2000/svg" in="SourceGraphic" stdDeviation="4.294"/>
   <feOffset xmlns="http://www.w3.org/2000/svg" dx="0" dy="4" result="pf_100_offsetBlur"/>
   <feFlood xmlns="http://www.w3.org/2000/svg" flood-opacity=".4"/>
   <feComposite xmlns="http://www.w3.org/2000/svg" in2="pf_100_offsetBlur" operator="in" result="pf_100_dropShadow"/>
   <feBlend xmlns="http://www.w3.org/2000/svg" in="SourceGraphic" in2="pf_100_dropShadow" mode="normal"/>
  </filter>
 </defs>
 <g filter="url(#SCEl8BVhMnJA8LSFnaBOiTgFiLDcUglJ)">
  <linearGradient id="_lgradient_36" x1="-.033" x2="1.033" y1="-.071" y2=".995" gradientTransform="matrix(244.648,0,0,228.338,5.676,11.947)" gradientUnits="userSpaceOnUse">
   <stop offset="0%" style="stop-color:rgb(88,132,244)"/>
   <stop offset="100%" style="stop-color:rgb(128,163,250)"/>
  </linearGradient>
  <path fill="url(#_lgradient_36)" d="M 165.685 11.947 C 239.74 11.947 250.324 22.504 250.324 96.491 L 250.324 155.742 C 250.324 229.728 239.74 240.285 165.685 240.285 L 90.315 240.285 C 16.26 240.285 5.676 229.728 5.676 155.742 L 5.676 96.491 C 5.676 22.504 16.26 11.947 90.315 11.947 L 165.685 11.947 Z"/>
 </g>
 <g opacity=".4">
  <linearGradient id="_lgradient_37" x1=".517" x2=".517" y1="0" y2="1">
   <stop offset="0%" style="stop-color:rgb(255,255,255)"/>
   <stop offset="12.5%" stop-opacity=".098" style="stop-color:rgb(255,255,255)"/>
   <stop offset="92.5%" stop-opacity=".098" style="stop-color:rgb(0,0,0)"/>
   <stop offset="100%" stop-opacity=".498" style="stop-color:rgb(0,0,0)"/>
  </linearGradient>
  <path fill="none" stroke="url(#_lgradient_37)" stroke-linecap="round" stroke-linejoin="round" stroke-width="4.077" d="M 165.685 11.947 C 239.74 11.947 250.324 22.504 250.324 96.491 L 250.324 155.742 C 250.324 229.728 239.74 240.285 165.685 240.285 L 90.315 240.285 C 16.26 240.285 5.676 229.728 5.676 155.742 L 5.676 96.491 C 5.676 22.504 16.26 11.947 90.315 11.947 L 165.685 11.947 Z" vector-effect="non-scaling-stroke"/>
 </g>
 <g opacity=".1">
  <path fill="#FFFFFF" d="M 5.676 126.116 L 5.676 155.742 C 5.676 229.728 16.26 240.285 90.315 240.285 L 165.685 240.285 C 239.74 240.285 250.324 229.728 250.324 155.742 L 250.324 126.116 L 5.676 126.116 Z"/>
 </g>
 <g>
  <linearGradient id="_lgradient_38" x1="-.008" x2="-.008" y1=".917" y2=".083" gradientTransform="matrix(244.648,0,0,48.93,5.676,103.534)" gradientUnits="userSpaceOnUse">
   <stop offset="0%" style="stop-color:rgb(217,217,217)"/>
   <stop offset="100%" style="stop-color:rgb(236,236,236)"/>
  </linearGradient>
  <path fill="url(#_lgradient_38)" d="M 5.676 103.534 L 5.676 152.464 L 13.831 152.464 L 13.831 103.534 L 5.676 103.534 Z M 242.169 103.534 L 242.169 152.464 L 250.324 152.464 L 250.324 103.534 L 242.169 103.534 Z"/>
  <path fill="#FFFFFF" d="M 5.676 103.534 L 5.676 104.553 L 13.831 104.553 L 13.831 103.534 L 5.676 103.534 Z M 242.169 103.534 L 242.169 104.553 L 250.324 104.553 L 250.324 103.534 L 242.169 103.534 Z"/>
  <g>
   <path fill="#FEE1C2" d="M 133.253 158.258 L 81.527 182.397 L 105.666 130.671 L 110.839 125.499 L 138.425 153.086 L 133.253 158.258 Z"/>
   <path fill="#5D5D5D" d="M 89.205 165.936 L 81.527 182.397 L 97.988 174.719 C 97.988 174.719 99.616 173.76 98.761 172.906 C 97.907 172.052 95.336 172.929 95.336 172.929 C 95.336 172.929 97.045 170.327 95.33 168.613 C 93.615 166.898 91.014 168.607 91.014 168.607 C 91.014 168.607 91.873 166.017 91.01 165.155 C 90.148 164.293 89.205 165.936 89.205 165.936 Z"/>
   <linearGradient id="_lgradient_39" x1="0" x2="1" y1="1.22" y2="1.22" gradientTransform="matrix(27.587,27.587,-90.357,90.357,192.575,43.763)" gradientUnits="userSpaceOnUse">
    <stop offset="0%" style="stop-color:rgb(88,132,244)"/>
    <stop offset="27.8%" style="stop-color:rgb(88,132,244)"/>
    <stop offset="27.8%" style="stop-color:rgb(47,95,221)"/>
    <stop offset="70.735%" style="stop-color:rgb(47,95,221)"/>
    <stop offset="70.936%" style="stop-color:rgb(35,77,184)"/>
    <stop offset="100%" style="stop-color:rgb(35,77,184)"/>
   </linearGradient>
   <path fill="url(#_lgradient_39)" d="M 105.666 130.671 C 109.114 127.223 115.149 136.706 109.976 141.878 C 118.597 133.258 130.667 145.327 122.046 153.948 C 127.218 148.775 136.701 154.81 133.253 158.258 L 220.161 71.35 L 192.575 43.763 L 105.666 130.671 Z"/>
  </g>
  <g>
   <defs>
    <filter id="kyshtp2dz3NlLgGW67qpJkUz5cyF9JUS" width="27.658" height="27.658" x="34.51" y="39.17" filterUnits="userSpaceOnUse">
     <feGaussianBlur xmlns="http://www.w3.org/2000/svg" stdDeviation=".571"/>
    </filter>
   </defs>
   <g opacity=".3" filter="url(#kyshtp2dz3NlLgGW67qpJkUz5cyF9JUS)">
    <circle fill="#131313" cx="0" cy="0" r="1" transform="matrix(12.5,0,0,12.5,48.339,52.999)" vector-effect="non-scaling-stroke"/>
   </g>
   <circle fill="#ECECEC" cx="0" cy="0" r="1" transform="matrix(12.5,0,0,12.5,48.339,52.999)" vector-effect="non-scaling-stroke"/>
   <defs>
    <filter id="HA8V8VjED2Kp6JqY7QVWulnB9eBVnCIo" width="43.34" height="34.548" x="34.51" y="182.28" filterUnits="userSpaceOnUse">
     <feGaussianBlur xmlns="http://www.w3.org/2000/svg" stdDeviation=".571"/>
    </filter>
   </defs>
   <g opacity=".3" filter="url(#HA8V8VjED2Kp6JqY7QVWulnB9eBVnCIo)">
    <path fill="#131313" d="M 71.564 183.611 L 70.154 185.007 L 49.286 205.669 L 40.797 197.268 L 35.836 202.184 L 45.757 212.002 L 49.286 215.501 L 53.87 210.954 L 76.518 188.543 L 71.564 183.611 Z"/>
   </g>
   <path fill="#F7F7F7" d="M 71.564 183.611 L 70.154 185.007 L 49.286 205.669 L 40.797 197.268 L 35.836 202.184 L 45.757 212.002 L 49.286 215.501 L 53.87 210.954 L 76.518 188.543 L 71.564 183.611 Z"/>
   <defs>
    <filter id="DJIyB73c0iQCf3VX8iZfKakBNcAf9xWb" width="27.658" height="27.658" x="34.51" y="89.17" filterUnits="userSpaceOnUse">
     <feGaussianBlur xmlns="http://www.w3.org/2000/svg" stdDeviation=".571"/>
    </filter>
   </defs>
   <g opacity=".3" filter="url(#DJIyB73c0iQCf3VX8iZfKakBNcAf9xWb)">
    <circle fill="#131313" cx="0" cy="0" r="1" transform="matrix(12.5,0,0,12.5,48.339,102.999)" vector-effect="non-scaling-stroke"/>
   </g>
   <circle fill="#ECECEC" cx="0" cy="0" r="1" transform="matrix(12.5,0,0,12.5,48.339,102.999)" vector-effect="non-scaling-stroke"/>
   <defs>
    <filter id="8WaWoSG7knOIZqqH4E8Ryl96F9nKqaPi" width="27.658" height="27.658" x="34.51" y="139.17" filterUnits="userSpaceOnUse">
     <feGaussianBlur xmlns="http://www.w3.org/2000/svg" stdDeviation=".571"/>
    </filter>
   </defs>
   <g opacity=".3" filter="url(#8WaWoSG7knOIZqqH4E8Ryl96F9nKqaPi)">
    <circle fill="#131313" cx="0" cy="0" r="1" transform="matrix(12.5,0,0,12.5,48.339,152.999)" vector-effect="non-scaling-stroke"/>
   </g>
   <circle fill="#ECECEC" cx="0" cy="0" r="1" transform="matrix(12.5,0,0,12.5,48.339,152.999)" vector-effect="non-scaling-stroke"/>
  </g>
 </g>
</svg>
